X: 20
T: EDMUND MacKENZIE OF PLOCKTON
C: Andrew Rankine
R: jig
B: "The Complete Andrew Rankine Collection of Scottish Country Dance Tunes" p.25
Z: 2017 John Chambers <jc:trillian.mit.edu>
M: 6/8
L: 1/8
K: G
|:\
"G"DEF GAB | d2d B3 | "D7"c2c A3 | "G"d2d B3 |\
"G"DEF GAB | d2d B3 | "D7"d^cd =cAF | "G"G3- G3 :|
|:\
"C"e3 c3 | "G"d^cd B3 | "D7"=cBc DFA | "G"d2c "G7"B2B |\
"C"e3 c3 | "G"d^cd B3 | ded "D7"cBA | "G"G3- G3 :|

%%sep 1 1 500

